packages/assets/static/images/icons/fire-truck.svg

<svg width="24" height="24" viewBox="0 0 24 24" xmlns="http://www.w3.org/2000/svg" fill="currentColor" aria-hidden="true"> <path d="M23.3568 9.70736L22.0443 6.42611C21.9058 6.07814 21.6658 5.77992 21.3554 5.57024C21.0451 5.36057 20.6788 5.24915 20.3043 5.25049H18.5624V4.87549C18.5624 4.57712 18.4439 4.29097 18.2329 4.07999C18.022 3.86901 17.7358 3.75049 17.4374 3.75049C17.1391 3.75049 16.8529 3.86901 16.6419 4.07999C16.431 4.29097 16.3124 4.57712 16.3124 4.87549V13.6936C15.8387 13.8627 15.4084 14.135 15.0527 14.4907C14.697 14.8464 14.4247 15.2767 14.2556 15.7505H10.1193C9.88663 15.0925 9.4557 14.5229 8.88587 14.12C8.31603 13.7171 7.63532 13.5008 6.93744 13.5008C6.23956 13.5008 5.55884 13.7171 4.98901 14.12C4.41918 14.5229 3.98825 15.0925 3.75556 15.7505H2.81244V12.3755C2.81244 12.0771 2.69391 11.791 2.48293 11.58C2.27196 11.369 1.98581 11.2505 1.68744 11.2505C1.38907 11.2505 1.10292 11.369 0.891944 11.58C0.680965 11.791 0.562439 12.0771 0.562439 12.3755V16.1255C0.562439 16.6228 0.759983 17.0997 1.11161 17.4513C1.46324 17.8029 1.94016 18.0005 2.43744 18.0005H3.75556C3.98825 18.6584 4.41918 19.2281 4.98901 19.631C5.55884 20.0338 6.23956 20.2502 6.93744 20.2502C7.63532 20.2502 8.31603 20.0338 8.88587 19.631C9.4557 19.2281 9.88663 18.6584 10.1193 18.0005H14.2556C14.4883 18.6584 14.9192 19.2281 15.489 19.631C16.0588 20.0338 16.7396 20.2502 17.4374 20.2502C18.1353 20.2502 18.816 20.0338 19.3859 19.631C19.9557 19.2281 20.3866 18.6584 20.6193 18.0005H21.5624C22.0597 18.0005 22.5366 17.8029 22.8883 17.4513C23.2399 17.0997 23.4374 16.6228 23.4374 16.1255V10.1255C23.4374 9.98225 23.4101 9.84033 23.3568 9.70736ZM20.0512 7.50049L20.6512 9.00049H18.5624V7.50049H20.0512ZM6.93744 18.0005C6.71493 18.0005 6.49743 17.9345 6.31242 17.8109C6.12742 17.6873 5.98322 17.5116 5.89807 17.306C5.81293 17.1004 5.79065 16.8742 5.83406 16.656C5.87746 16.4378 5.98461 16.2373 6.14194 16.08C6.29928 15.9227 6.49973 15.8155 6.71796 15.7721C6.93619 15.7287 7.16239 15.751 7.36796 15.8361C7.57352 15.9213 7.74923 16.0655 7.87284 16.2505C7.99646 16.4355 8.06244 16.653 8.06244 16.8755C8.06244 17.1739 7.94391 17.46 7.73293 17.671C7.52196 17.882 7.23581 18.0005 6.93744 18.0005ZM17.4374 18.0005C17.2149 18.0005 16.9974 17.9345 16.8124 17.8109C16.6274 17.6873 16.4832 17.5116 16.3981 17.306C16.3129 17.1004 16.2906 16.8742 16.3341 16.656C16.3775 16.4378 16.4846 16.2373 16.6419 16.08C16.7993 15.9227 16.9997 15.8155 17.218 15.7721C17.4362 15.7287 17.6624 15.751 17.868 15.8361C18.0735 15.9213 18.2492 16.0655 18.3728 16.2505C18.4965 16.4355 18.5624 16.653 18.5624 16.8755C18.5624 17.1739 18.4439 17.46 18.2329 17.671C18.022 17.882 17.7358 18.0005 17.4374 18.0005ZM20.6193 15.7505C20.4502 15.2767 20.1779 14.8464 19.8222 14.4907C19.4665 14.135 19.0362 13.8627 18.5624 13.6936V11.2505H21.1874V15.7505H20.6193ZM1.68744 7.50049C1.38907 7.50049 1.10292 7.61901 0.891944 7.82999C0.680965 8.04097 0.562439 8.32712 0.562439 8.62549C0.562439 8.92386 0.680965 9.21001 0.891944 9.42098C1.10292 9.63196 1.38907 9.75049 1.68744 9.75049H13.6874C13.9858 9.75049 14.272 9.63196 14.4829 9.42098C14.6939 9.21001 14.8124 8.92386 14.8124 8.62549C14.8124 8.32712 14.6939 8.04097 14.4829 7.82999C14.272 7.61901 13.9858 7.50049 13.6874 7.50049H12.5624V6.00049H13.6874C13.9858 6.00049 14.272 5.88196 14.4829 5.67098C14.6939 5.46001 14.8124 5.17386 14.8124 4.87549C14.8124 4.57712 14.6939 4.29097 14.4829 4.07999C14.272 3.86901 13.9858 3.75049 13.6874 3.75049H1.68744C1.38907 3.75049 1.10292 3.86901 0.891944 4.07999C0.680965 4.29097 0.562439 4.57712 0.562439 4.87549C0.562439 5.17386 0.680965 5.46001 0.891944 5.67098C1.10292 5.88196 1.38907 6.00049 1.68744 6.00049H2.81244V7.50049H1.68744ZM10.3124 7.50049H8.81244V6.00049H10.3124V7.50049ZM5.06244 6.00049H6.56244V7.50049H5.06244V6.00049Z"/> </svg>

<svg viewBox="0 0 24 24" xmlns="http://www.w3.org/2000/svg" aria-hidden="true" fill="currentColor"><path d="m23.357 9.707-1.313-3.28a1.865 1.865 0 0 0-1.74-1.177h-1.742v-.375a1.125 1.125 0 1 0-2.25 0v8.819a3.4 3.4 0 0 0-2.056 2.057h-4.137a3.375 3.375 0 0 0-6.363 0h-.944v-3.375a1.125 1.125 0 1 0-2.25 0v3.75A1.875 1.875 0 0 0 2.437 18h1.319a3.375 3.375 0 0 0 6.363 0h4.137a3.375 3.375 0 0 0 6.363 0h.943a1.875 1.875 0 0 0 1.875-1.875v-6q0-.217-.08-.418M20.05 7.5l.6 1.5h-2.089V7.5zM6.937 18a1.125 1.125 0 1 1 0-2.25 1.125 1.125 0 0 1 0 2.25m10.5 0a1.125 1.125 0 1 1 0-2.25 1.125 1.125 0 0 1 0 2.25m3.182-2.25a3.4 3.4 0 0 0-2.057-2.056V11.25h2.625v4.5zM1.687 7.5a1.125 1.125 0 1 0 0 2.25h12a1.125 1.125 0 1 0 0-2.25h-1.125V6h1.125a1.125 1.125 0 1 0 0-2.25h-12a1.125 1.125 0 1 0 0 2.25h1.125v1.5zm8.625 0h-1.5V6h1.5zM5.062 6h1.5v1.5h-1.5z"/></svg>
